packages/astro-components-stencil/src/icons/perm-scan-wifi.svg

<svg xmlns="http://www.w3.org/2000/svg" viewBox="0 0 24 24"><g xmlns="http://www.w3.org/2000/svg" id="perm-scan-wifi" fill-rule="nonzero">
            <path d="M12 3C7.41 3 3.86 4.53.89 6.59c-.49.33-.59 1-.22 1.46l9.78 12.04c.8.98 2.3.99 3.1 0l9.78-12.02a.999.999 0 00-.22-1.46C20.14 4.54 16.59 3 12 3zm0 13c-.55 0-1-.45-1-1v-4c0-.55.45-1 1-1s1 .45 1 1v4c0 .55-.45 1-1 1zm-1-8V6h2v2h-2z"/>
        </g></svg>

<svg width="24" height="24" viewBox="0 0 24 24" fill="none" xmlns="http://www.w3.org/2000/svg">
<path fill-rule="evenodd" clip-rule="evenodd" d="M12 3C7.41001 3 3.86001 4.53 0.89001 6.59C0.40001 6.92 0.30001 7.59 0.67001 8.05L10.45 20.09C11.25 21.07 12.75 21.08 13.55 20.09L23.33 8.07C23.7 7.61 23.6 6.94 23.11 6.61C20.14 4.54 16.59 3 12 3ZM12 16C11.45 16 11 15.55 11 15V11C11 10.45 11.45 10 12 10C12.55 10 13 10.45 13 11V15C13 15.55 12.55 16 12 16ZM11 6V8H13V6H11Z" fill="black"/>
</svg>
